X:1
T:For Children- Book 2 (after Slovakian Folksongs)
T:40. Sweet Summer Breeze/ 41. The Strong Farmer
T:Book 2 (after Slovakian Folksongs)
T:40. Sweet Summer Breeze/ 41. The Strong Farmer
T:For Children Nr 40,41, Sz 42 
T:Béla Bartók Revised and Arranged by the Composer, January 1945 
T:Oli 2020
T:Oli 2020
T:Oli 2020
C:Bartók, Béla
Z:Oli 2020
%%score { ( 1 3 ) | ( 2 4 ) }
L:1/8
Q:1/4=85
M:6/8
K:C
V:1 treble nm="Piano"
V:3 treble 
V:2 bass 
V:4 bass 
V:1
"^Parlando, molto rubato" !fermata!!5!d6- | d6- | d6- | %3
"_dim." d2 z[K:bass] .!1!!5![^F,D] !tenuto!!2!!4![E,C]2 |!p! [^F,D]3- [F,D]2 z | %5
[K:treble]!p!!ped![I:staff +1]{F,,C,F,[I:staff -1]A,} !4!C!ped-up!!3!C!2!C!ped![I:staff +1]{A,,E,[I:staff -1]A,} !4!C !3!C2 | %6
[I:staff +1]{G,,D,-[I:staff -1]G,-B,-} !>![G,B,D]6!ped-up! |!mp!!<(! (.!1!D.F.^F .!5!G.!5!G.F!<)! | %8
!>(! .^F.!2!E.!2!E D !tenuto!!3!C2!>)! |!p! !fermata!!1!!4![A,D]6) | z6 | %11
 z2 z z2[K:bass] !arpeggio!!>!!1!!4!!5![^F,CD] | z2"_dim." !arpeggio![^F,CD] z2 !arpeggio![F,CD] | %13
 z2 z z!mp! (!tenuto!!1!!4!!5![=F,CE]2 | !1!!2![^F,A,]6) | %15
[K:treble] z2 z z!<(! !arpeggio!!1!!2!!4!!5![A,CEG] z | %16
 !arpeggio!!1!!2!!4!!5![CEGA] z !arpeggio!!1!!2!!3!!5![EGAc] z!<)!!>(! (!tenuto!!1!!3!!5![F_B_e]2!>)! | %17
!p! !fermata!!1!!2![^FA]6) |[M:2/4][Q:1/4=114]"^Allegro moderato""^non legato"!f! !1!DE^FD | %19
 (!^!!2!G2 B)!1!G | !3!B^cdB | (!^!d2 .A2) | DE^FD | (!^!G2 B)G | B^cdB | (!^!d2 .A2) | %26
 (!^!!5!d2 .B).G | (!4!^F!3!E).!3!E.C | !2!E^FGE | (!^!G2 .D2) | (!^!d2 .B).G | (^FE).E.C | E^FGE | %33
!<(! (G2!<)! .D2) | z4 |[M:6/8][Q:1/4=85]"^Tempo I""_m.g." !fermata!!5!^f6-!ped! | %36
!mf! f6-!ped-up! | f6!ped!!ped-up!!ped! | .B.!4!^A.^G .^F !tenuto!E2!ped-up! | %39
 !fermata!^F6!ped!!ped-up! |!p!!<(! (.E.^G.^A .B.B.A!<)! |!>(! .^A.^G.G .^F !tenuto!E2!>)! | %42
 !fermata!^F6)!ped! | %43
[M:2/4][Q:1/4=114]"^Allegro moderato""^poco sostenuto e poco a poco" z4!ped-up!!ped! | z4 | %45
[Q:1/4=130]"^T" z4 |!p! AB^cA!ped-up! |[Q:1/4=135]"^T" (!>!d2 ^f)d | %48
[Q:1/4=140]"^T""_poco a poco   cresc." ^f^gaf | (!>!a2 e2) | AB^cA | %51
"^a tempo"[Q:1/4=124]"^T" (!>!d2 ^f)d | ^f^gaf | (a2 e2) |!f! (!^!a2 ^f)d | (^cB)BG | B^cdB | %57
 (d2 A2) | (!^!a2 ^f)d | (^cB)BG | B^cdB | (!5!d2 !2!A2) |[K:bass] (!5!D,2 !2!A,,2) | %63
[K:treble] (d2 A2) |[K:bass] (!5!E,2 !2!A,,2) | z2[K:treble]"^ritenuto"[Q:1/4=120]"^T"!f! (!1!A2 | %66
 !5!e2 !1!A2) |[M:6/8][Q:1/4=85]"^Tempo I"!f!!>(! !fermata!!5!c6!ped!!>)! | %68
!mf! (.!3!A.!1!F.!1!F .!1!F!ped-up!.!5!A.!4
1
!G | .F.A.G .F.A.G | .F.E.D .!3!C _B,2 | %71
 !fermata!C6) |!p! (.!1!_B,.D.E .F.F.E | .E.D.D!pp! !4
1
!C !tenuto!_B,2 | %74
!<(! (!fermata!C6){!fermata!_B,!fermata!C}!<)! | %75
[M:2/4][Q:1/4=114]"^Allegro moderato"!f! !^!!5!D2) (!3!!4![CD]2- | [CD]2 [B,D]2) | %77
 z2 .!1!!2!!5![G,B,E]2 | (!^!!1!!2!!5![G,B,E]2!ped! !1!!2!!4![A,D^F]2)!ped-up! | %79
!f!{/D} .!^!d2 (!2!!4!!5![Acd]2- | [Acd]2 [GBd]2) |"_cresc." z2 .!1!!2!!4![Beg]2 | %82
 (!^![Beg]2 !1!!3!!5![c^fa]2) | (!1!!2!!4![dgb]2 !1!!3!!5![^fbd']2) | %84
 (!^!!1!!2!!4![^fbd']2 !1!!3!!5![gc'e']2) | z2 .!1!!2!!5![ac'^f']2 | %86
 (!^![ac'^f']2 !1!!2!!4![gbd']2) | (!^!!1!!3!!4![gbc']2 !1!!3!!5![^fbd']2) |!ff! z2 [gc'g']2 | %89
 (!^!!4!^F!3!E).!3!E.C |!>(! (^fe).e!breath!!fermata!c!>)! |"^grazioso"!mf! (.!3!e.^f.g.e) | %92
"^(poco più vivo)"[Q:1/4=130]"^T"!>(! (!5!g2!>)! !2!d2) | %93
!p! z2[I:staff +1] !arpeggio!.!1!!2!!4!!5![A,C_E^F]2 | %94
!>(![I:staff -1] z2!>)![I:staff +1] !arpeggio!.!1!!2!!4![G,B,D]2 |!mf![I:staff -1] (.e.^f.g.e) | %96
!>(! (g2!>)! d2) |!p! z2!>(![I:staff +1] !arpeggio!.!tenuto![^F,A,C=F]2 | %98
[I:staff -1] z2!>)![I:staff +1] !arpeggio!.[G,B,D]2 | %99
[I:staff -1] z2[I:staff +1] !arpeggio!!>!!tenuto![^F,A,C=F]2 | %100
"_accel."[Q:1/4=145]"^T""_cresc." .[G,B,D]2 !arpeggio!.[A,C=F]2 | .[G,B,D]2 .[A,C=F]2 | %102
[Q:1/4=150]"^T" .[G,B,D]2 .[A,C=F]2 |[Q:1/4=155]"^T" .[G,B,D]2 .[A,C=F]2 | %104
[Q:1/4=160]"^T" .[G,B,D]2 .[A,C=F]2 |[Q:1/4=170]"^T" !tenuto!.[G,B,D]2 .!fermata![A,C=F]2 | %106
"^sostenuto, molto rubato"[Q:1/4=140]"^T"[I:staff -1] (!2!e^f).g.e | .e(^fg).e | .e.^f(ge) | %109
 (.e.^f.g.!fermata!e) | z2!ped!"^a tempo"!mp![Q:1/4=114]"^T" !arpeggio![^FAc_e]2!ped-up! | %111
"_cresc." z2!ped! !arpeggio![GBd]2!ped-up! | z2!ped!!>(! !arpeggio![^FAc=e]2!ped-up! | %113
 z2!ped!!>)! !arpeggio![GBd]2!ped-up! | z4!ped! |!>(! [Ac_e^f]4!ped-up! | z4!ped!!>)! | %117
 !fermata![GBd]4!ped-up! |] %118
V:2
 !fermata!!1!D,6- | D,6- | D,6- | D,2 z .!4!!1![D,,A,,] !tenuto!!5!!2![C,,G,,]2 | %4
 !4!!1![D,,A,,]3- [D,,A,,]2 z | x6 |{x-} [G,,D,]6 | z2 z z !arpeggio![E,G,B,D] z | x2 C,2 E,2 | %9
 !fermata![D,^F,]6 | !fermata!D,6- |!f! D,6- | D,6 | (.G,,.^F,,.E,, D,, !tenuto!C,,2 | D,,6) | %15
!mp! (.C,,!<(!.E,,.^F,, .G,,.G,,.F,,!<)! |!>(! .^F,,.E,,.E,, D,, !tenuto!C,,2)!>)! | %17
 !fermata!D,,6 |[M:2/4] z2 !tenuto!C2 | !^!D4 | z2 !tenuto!!4!!2![^C,E,]2 | %21
 (!5!!3![D,^F,][E,G,]) .[F,A,]2 | z2 !tenuto!C2 | !^!D4 | z2 [^C,E,]2 | ([D,^F,][E,G,]) .[F,A,]2 | %26
 !^!G,4- | G,4 | z2 !tenuto!!5!!3![^C,E,]2 | ([B,,D,][^C,E,]) .!4!!2![D,^F,]2 | !^!G,4- | G,4 | %32
 z2 !tenuto![A,,^C,]2 | ([B,,D,][^C,E,]) .[D,^F,]2 | z4 |[M:6/8] !fermata!z6 | %36
 z2 z z2 !arpeggio![B,,E,^G,]- | [B,,E,G,] z !5!!2![E,,B,,]-[E,,B,,] z !arpeggio![B,,E,^G,]- | %38
 [B,,E,G,]6 | [^A,,^D,^F,]3 !fermata!^D,,3 | z6 | z6 | !2!!1![A,,D,A,]3 !fermata!D,,3 | %43
[M:2/4] z!p! !3!!1![^FA][FA][FA] | [^FA][FA][FA][FA] | [^FA][FA][FA][FA] | ^FF[EG][EG] | %47
 !3!!1![D^F][DF][DF][DF] | !5!!3![B,D][B,D][B,D][B,D] | [^CE][CE][CE][CE] | %50
 !5!!2!!1![A,E^G][A,EG][A,EG][A,EG] | !5!!2!!1![A,D^F][A,DF][A,DF][A,DF] | %52
 !5!!4!!2![A,B,D][A,B,D][A,B,D][A,B,D] | [A,^CE][A,CE][A,CE][A,CE] | %54
 [D,A,^C][D,A,C][D,A,C][D,A,C] | [D,G,B,][D,G,B,][D,G,B,][D,G,B,] | %56
 [D,E,G,][D,E,G,][D,E,G,][D,E,G,] | [D,^F,A,][D,F,A,][D,F,A,][D,F,A,] | %58
 [D,A,^C][D,A,C][D,A,C][D,A,C] | [D,G,B,][D,G,B,][D,G,B,][D,G,B,] | %60
 !4!!3!!2![D,E,G,][D,E,G,][D,E,G,][D,E,G,] | [C,F,A,][C,F,A,][C,F,A,][C,F,A,] | %62
 [C,F,A,][C,F,A,][C,F,A,][C,F,A,] | [C,F,A,][C,F,A,][C,F,A,][C,F,A,] | %64
 [C,F,A,][C,F,A,][C,F,A,][C,F,A,] | z2 (!5!A,2 | !1!E2 !5!A,2) |[M:6/8] C6 | %68
 [B,,F,]3- [B,,F,]2 !4!!1![_B,,F,]- | [B,,F,]3- [B,,F,]2 [_B,,F,]- | [B,,F,]6 | %71
 !fermata!!5!!2![A,,E,]6 | z6 | z2 z !4!!1![_E,,_B,,]3- | !fermata![E,,B,,]6 | %75
[M:2/4] !5!D,,E,,^F,,D,, | (!^!!3!G,,2 B,,)G,, | !1!B,,!2!^C,D,!3!B,, | (!^!D,2 !5!!2![D,,A,,]2) | %79
 D,E,^F,D, | (!^!G,2 B,)G, | B,^CDB, | (!^!D2 [D,A,]2) | (!1!D2 B,)G, | (!^!!3!^F,!4!E,)!3!E,C, | %85
 E,^F,G,E, | (!^!G,2 !5!!2![G,,D,]2) |[K:treble] (d2 B)G | (!^!^FE).E.C | %89
[K:bass] z2 !tenuto![C,,G,,]2 | z2 !tenuto!!fermata![C,G,]2 | z4 | .D,2 !arpeggio!.[G,B,D]2 | %93
 .!5!D,,2 z2 | .!2!G,,2 z2 | .^F,,2 !arpeggio!.!4!!2!!1![^F,^A,E]2 | .D,2 !arpeggio!.[G,B,D]2 | %97
 .D,,2 z2 | .G,,2 z2 | .D,2 z2 | .!5!!2![G,,D,]2 .!2!!1![D,^F,]2 | .[G,,D,]2 .[D,^F,]2 | %102
 .[G,,D,]2 .[D,^F,]2 | .[G,,D,]2 .[D,^F,]2 | .[G,,D,]2 .[D,^F,]2 | .[G,,D,]2 .[D,^F,]2 | %106
 [^C,^F,^A,]4- | [C,F,A,]4- | [C,F,A,]4- | [C,F,A,]4 | .D,2 .[A,C]2 | .G,,2 .[B,D]2 | %112
 .D,2 .[A,C]2 | .G,,2 .[B,D]2 | D,,4 |!mf! [^F,A,C_E]4 |!p! G,,,4 | !fermata![D,G,B,]4 |] %118
V:3
 x6 | !tenuto!B!f!!tenuto!G!tenuto!G !tenuto!G!>!!tenuto!B!tenuto!A | %2
 !tenuto!G!>!!tenuto!B!tenuto!A !tenuto!G!>!!tenuto!B!tenuto!A | G!3!^F!2!E[K:bass] x3 | x6 | %5
[K:treble] x6 | x6 | x6 | x6 | x6 | x6 | x5[K:bass] x | x6 | x6 | x6 |[K:treble] x6 | x6 | x6 | %18
[M:2/4] x4 | x4 | x4 | x4 | x4 | x4 | x4 | x4 | x4 | x4 | x4 | x4 | x4 | x4 | x4 | x4 | x4 | %35
[M:6/8]{/^F,} ^F6 | (.^d.B.B .B.d.^c | .B.^d.^c .B.d.c | x6 | x6) | x6 | x6 | x6 |[M:2/4] x4 | x4 | %45
 x4 | x4 | x4 | x4 | x4 | x4 | x4 | x4 | x4 | x4 | x4 | x4 | x4 | x4 | x4 | x4 | x4 |[K:bass] x4 | %63
[K:treble] x4 |[K:bass] x4 | x2[K:treble] x2 | x4 |[M:6/8] z2 z !^!!fermata!D3 | x4 x D- | %69
 D3- D2 D- | D x4 z | x6 | x6 | z3 _G,3- | G,6 |[M:2/4] x4 | x4 | x4 | x4 | x4 | x4 | x4 | x4 | %83
 x4 | x4 | x4 | x4 | x4 | x4 | x4 | x4 | x4 | x4 | x4 | x4 | x4 | x4 | x4 | x4 | x4 | x4 | x4 | %102
 x4 | x4 | x4 | x4 | x4 | x4 | x4 | x4 | x4 | x4 | x4 | x4 | x4 | x4 | x4 | x4 |] %118
V:4
 x6 | !tenuto!B,,!tenuto!G,,!tenuto!G,, !tenuto!G,,!>!!tenuto!B,,!tenuto!A,, | %2
 !tenuto!G,,!>!!tenuto!B,,!tenuto!A,, !tenuto!G,,!>!!tenuto!B,,!tenuto!A,, | %3
 .!5!G,,.!2!^F,,.E,, x3 | x6 | x6 | x6 | x6 | !arpeggio![C,E,G,B,] z [A,,G,]- [A,,G,]3 | x6 | x6 | %11
 !tenuto!B,,!tenuto!G,,!tenuto!G,, !tenuto!G,,!tenuto!B,,!tenuto!A,, | %12
 !tenuto!G,,!tenuto!B,,!tenuto!A,, !tenuto!G,,!tenuto!B,,!tenuto!A,, | x6 | x6 | x6 | x6 | x6 | %18
[M:2/4] x4 | (B,2 G,2) | x4 | x4 | x4 | (B,2 G,2) | x4 | x4 | (!


1
2
!^F,2 D,2 | C,2 E,2) | x4 | %29
 x4 | (^F,2 D,2 | C,2 E,2) | x4 | x4 | x4 |[M:6/8] x6 | x6 | x6 | x6 | x6 | x6 | x6 | x6 | %43
[M:2/4] x4 | x4 | x4 | x4 | x4 | x4 | x4 | x4 | x4 | x4 | x4 | x4 | x4 | x4 | x4 | x4 | x4 | x4 | %61
 x4 | x4 | x4 | x4 | x4 | x4 |[M:6/8] z2 z !^!!fermata!!5!!2![_B,,F,]3- | x6 | x6 | x6 | x6 | x6 | %73
 x6 | x6 |[M:2/4] x4 | x4 | x4 | x4 | x4 | x4 | x4 | x4 | x4 | x4 | x4 | x4 |[K:treble] x4 | x4 | %89
[K:bass] x4 | x4 | x4 | x4 | x4 | x4 | x4 | x4 | x4 | x4 | x4 | x4 | x4 | x4 | x4 | x4 | x4 | x4 | %107
 x4 | x4 | x4 | x4 | x4 | x4 | x4 | x4 | x4 | x4 | x4 |] %118

